X: 09068
T: LESLIE'S JIG
C: Bob McQuillen 18 Nov 92
B: Bob's Note Book 9 #68
R: jig
Z: 2018 John Chambers <jc:trillian.mit.edu>
M: 6/8
L: 1/8
K: G
D \
| GEG DGA | BAB G2B | dge dBG | BAG AGE |
| GEG DGA | BAB G2B | dge dBA | BGG G2 :|
|: d \
| gfe dBd | gfe d2d | cde dBd | gdB A2B |
| GAB cde | fga g2e | ded cAF | AGG G2 :|
%%begintext align
%% Every so often I get to play for one of
%% the Thursday Night dances at the VFW hall in Cambridge, MA, thanks
%% to Larry Jennings and Dan Pearl and the committee. When the dance
%% is over, this lovely young woman named Leslie Morrison shows
%% up at the stage with the cash box. Leslie is the treasurer, and she
%% always sends us home happy with what we just did. Of course, we
%% had a good time playing the music, but we are grateful for what Leslie
%% does, too.  Thanks a lot, leslie!
%%endtext

%%sep 1 1 500

%%sep 1 1 500

